X: 2
T: No_101_Song_After_a_Boy_Returns_From_Fasting.krn
%%abc-version 2.0
%%abcx-abcm2ps-target-version 5.9.1 (29 Sep 2008)
%%abc-creator hum2abc beta
%%abcx-conversion-date 2020/08/10 18:54:56
%%gracespace 0 6 6
%%humdrum-veritas 1500983235
%%humdrum-veritas-data 3656058399
%%linebreak <none>
%%barnumbers 0
L: 1/8
M: 3/4
%%staves {1 2}
V: 1 clef=bass
V: 2 clef=bass
K: F
[V:1] [K:clef=bass][M:3/4]CCC2_D2 | 
[V:2] [K:clef=bass][M:3/4]G,,G,, G,,G,, G,,G,, | 
[V:1] C2C2(3_DCC | 
[V:2] z6 | 
[V:1] !fermata!C4C3/A,/ | 
[V:2] z6 | 
[V:1] A,A,A,2C2 | 
[V:2] z6 | 
[V:1] C2CC A,3/G,/ | 
[V:2] z6 | 
[V:1] F,F,F,2A,2 | 
[V:2] z6 | 
[V:1] A,>G,F,2(3A,F,D, | 
[V:2] z6 | 
[V:1] C,C, C,A,,C,2 | 
[V:2] z6 | 
[V:1] C,2C,C,C,2 | 
[V:2] z6 | 
[V:1] C,6- | 
[V:2] z6 | 
[V:1] C,6 ||  
[V:2] z6 ||  
[V:1] [M:2/4]C,C, C,C, ||  
[V:2] [M:2/4]z4 ||  
[V:1] [M:3/4]C,C, C,C,A,,2 | 
[V:2] [M:3/4]z6 | 
[V:1] F,,F,,F,,2A,,2 | 
[V:2] z6 | 
[V:1] A,,>G,,F,,2F,,2 ||  
[V:2] z6 ||  
[V:1] [M:2/4]F,,7/F,,/ | 
[V:2] [M:2/4]z4 | 
[V:1] F,,4- | 
[V:2] z4 | 
[V:1] F,,4 |]  
[V:2] z4 |]  


